jsapp/svg-icons/qt-decimal.svg

<svg height="642" viewBox="0 0 642 642" width="642" xmlns="http://www.w3.org/2000/svg"><g fill="#000" fill-rule="nonzero"><path d="m201.15 460h-54.09v-220.74l-51.41 1.14v-39l105.5-18.85z"/><path d="m342.44 460h-53.51v-49.16h53.51z"/><path d="m546.39 351.23c0 36.946667-7.333333 64.973333-22 84.08s-34.31 28.67-58.93 28.69c-24.886667 0-44.69-9.553333-59.41-28.66s-22.07-47.143333-22.050041-84.11v-59.6c0-36.813333 7.333374-64.836667 22.000041-84.07s34.376667-28.85 59.13-28.85 44.493333 9.616667 59.22 28.85 22.09 47.256667 22.09 84.07zm-54.08-64.37c0-22.34-2.333333-38.653333-7-48.94s-11.203333-15.11-19.61-14.47h-1.14c-8.506667-.666667-15.043333 4.156667-19.61 14.47s-6.883333 26.63-6.95 48.95v68.75c0 22.6 2.333333 39.073333 7 49.42s11.266667 15.14 19.8 14.38h1.2c8.38.76 14.853333-4 19.42-14.28s6.853333-26.783333 6.86-49.51z"/></g></svg>

<svg id="Layer_1" data-name="Layer 1" xmlns="http://www.w3.org/2000/svg" viewBox="0 0 642 642"><path d="M201.15,460H147.06V239.26L95.65,240.4v-39l105.5-18.85Z"/><path d="M342.44,460H288.93V410.84h53.51Z"/><path d="M546.39,351.23q0,55.42-22,84.08T465.46,464q-37.33,0-59.41-28.66T384,351.23v-59.6q0-55.22,22-84.07t59.13-28.85q37.13,0,59.22,28.85t22.09,84.07Zm-54.08-64.37q0-33.51-7-48.94t-19.61-14.47h-1.14q-12.76-1-19.61,14.47T438,286.87v68.75q0,33.9,7,49.42t19.8,14.38H466q12.57,1.14,19.42-14.28t6.86-49.51Z"/></svg>
